public/avatar/hat/4.svg

<svg xmlns:xlink="http://www.w3.org/1999/xlink" height="92.9" width="100.7" xmlns="http://www.w3.org/2000/svg"><use height="9.1" transform="translate(29.4 46.05)" width="18.5" xlink:href="#a"/><defs><g id="a" transform="translate(9.25 4.6)"><use height="9.05" transform="translate(-9.25 -4.55)" width="6.2" xlink:href="#b"/><use height="9.05" transform="matrix(-1 0 0 1 9.25 -4.6)" width="6.2" xlink:href="#b"/></g><g id="c"><path d="m-2.6 3.95.7-4.35q.35-1.45 1.1-2.45l.2.9q.4 2.15.4 4.4L-.6 3q-1.35 1.5-2 .95" fill="#cce4ff" fill-rule="evenodd" transform="translate(3.1 4.6)"/><path d="m-.6 3 .4-.55q0-2.25-.4-4.4l-.2-.9L.65-4.1 2.6 1.6-.6 3" fill="#fff" fill-rule="evenodd" transform="translate(3.1 4.6)"/><path d="M-.8-2.85q-.75 1-1.1 2.45l-.7 4.35m1.8-6.8L.65-4.1 2.6 1.6" fill="none" stroke="#69c" stroke-linecap="round" stroke-linejoin="round" transform="translate(3.1 4.6)"/></g><use height="9.05" width="6.2" xlink:href="#c" id="b"/></defs></svg>

<?xml version="1.0" encoding="UTF-8" standalone="no"?>
<svg xmlns:xlink="http://www.w3.org/1999/xlink" height="92.9px" width="100.7px" xmlns="http://www.w3.org/2000/svg">
  <g transform="matrix(1.0, 0.0, 0.0, 1.0, 38.65, 49.75)">
    <use height="9.1" transform="matrix(1.0, 0.0, 0.0, 1.0, -9.25, -3.7)" width="18.5" xlink:href="#sprite0"/>
  </g>
  <defs>
    <g id="sprite0" transform="matrix(1.0, 0.0, 0.0, 1.0, 9.25, 4.6)">
      <use height="9.05" transform="matrix(1.0, 0.0, 0.0, 1.0, -9.25, -4.55)" width="6.2" xlink:href="#sprite1"/>
      <use height="9.05" transform="matrix(-1.0, 0.0, 0.0, 1.0, 9.25, -4.6)" width="6.2" xlink:href="#sprite1"/>
    </g>
    <g id="sprite1" transform="matrix(1.0, 0.0, 0.0, 1.0, 3.1, 4.6)">
      <use height="9.05" transform="matrix(1.0, 0.0, 0.0, 1.0, -3.1, -4.6)" width="6.2" xlink:href="#shape0"/>
    </g>
    <g id="shape0" transform="matrix(1.0, 0.0, 0.0, 1.0, 3.1, 4.6)">
      <path d="M-2.6 3.95 L-1.9 -0.4 Q-1.55 -1.85 -0.8 -2.85 L-0.6 -1.95 Q-0.2 0.2 -0.2 2.45 L-0.6 3.0 Q-1.95 4.5 -2.6 3.95" fill="#cce4ff" fill-rule="evenodd" stroke="none"/>
      <path d="M-0.6 3.0 L-0.2 2.45 Q-0.2 0.2 -0.6 -1.95 L-0.8 -2.85 0.65 -4.1 2.6 1.6 -0.6 3.0" fill="#ffffff" fill-rule="evenodd" stroke="none"/>
      <path d="M-0.8 -2.85 Q-1.55 -1.85 -1.9 -0.4 L-2.6 3.95 M-0.8 -2.85 L0.65 -4.1 2.6 1.6" fill="none" stroke="#6699cc" stroke-linecap="round" stroke-linejoin="round" stroke-width="1.0"/>
    </g>
  </defs>
</svg>
